svgs/duotone/ranking-star.svg

<svg xmlns="http://www.w3.org/2000/svg" viewBox="0 0 640 512"><!--! Font Awesome Pro 6.6.0 by @fontawesome - https://fontawesome.com License - https://fontawesome.com/license (Commercial License) Copyright 2024 Fonticons, Inc. --><path class="fa-secondary" style="fill:var(--fa-secondary-color,inherit);opacity:var(--fa-secondary-opacity,.4);" d="M0 352c0-17.7 14.3-32 32-32l128 0c17.7 0 32 14.3 32 32l0 128c0 17.7-14.3 32-32 32L32 512c-17.7 0-32-14.3-32-32L0 352zm224-64c0-17.7 14.3-32 32-32l128 0c17.7 0 32 14.3 32 32l0 192c0 17.7-14.3 32-32 32l-128 0c-17.7 0-32-14.3-32-32l0-192zM448 416c0-17.7 14.3-32 32-32l128 0c17.7 0 32 14.3 32 32l0 64c0 17.7-14.3 32-32 32l-128 0c-17.7 0-32-14.3-32-32l0-64z"/><path class="fa-primary" style="fill:var(--fa-primary-color,inherit);opacity:var(--fa-primary-opacity,1);" d="M330.2 6.3l23.6 47.8 52.3 7.5c9.3 1.4 13.2 12.9 6.4 19.8l-38 36.6 9 52.1c1.4 9.3-8.2 16.5-16.8 12.2l-46.6-24.4-46.9 24.8c-8.6 4.3-18.3-2.9-16.8-12.2l9-52.1-38-37c-6.8-6.8-2.9-18.3 6.4-19.8l52.3-7.5L309.8 6.3c4.3-8.6 16.5-8.3 20.4 0z"/></svg>

<svg xmlns="http://www.w3.org/2000/svg" viewBox="0 0 640 512"><!--! Font Awesome Pro 6.4.2 by @fontawesome - https://fontawesome.com License - https://fontawesome.com/license (Commercial License) Copyright 2023 Fonticons, Inc. --><path class="fa-primary" style="fill:var(--fa-primary-color,inherit);opacity:var(--fa-primary-opacity,1);" d="M330.2 6.3l23.6 47.8 52.3 7.5c9.3 1.4 13.2 12.9 6.4 19.8l-38 36.6 9 52.1c1.4 9.3-8.2 16.5-16.8 12.2l-46.6-24.4-46.9 24.8c-8.6 4.3-18.3-2.9-16.8-12.2l9-52.1-38-37c-6.8-6.8-2.9-18.3 6.4-19.8l52.3-7.5L309.8 6.3c4.3-8.6 16.5-8.3 20.4 0z"/><path class="fa-secondary" style="fill:var(--fa-secondary-color,inherit);opacity:var(--fa-secondary-opacity,.4);" d="M224 288c0-17.7 14.3-32 32-32H384c17.7 0 32 14.3 32 32V480c0 17.7-14.3 32-32 32H256c-17.7 0-32-14.3-32-32V288zM0 352c0-17.7 14.3-32 32-32H160c17.7 0 32 14.3 32 32V480c0 17.7-14.3 32-32 32H32c-17.7 0-32-14.3-32-32V352zm480 32H608c17.7 0 32 14.3 32 32v64c0 17.7-14.3 32-32 32H480c-17.7 0-32-14.3-32-32V416c0-17.7 14.3-32 32-32z"/></svg>
